icons/1_Primary/Activision.svg

<svg xmlns="http://www.w3.org/2000/svg" viewBox="0 0 1024 1024">
   <circle cx="512" cy="512" r="512"/>
   <path d="M409.2 473.6h26.3v100.5h-26.3V473.6zm385.4 57.7v42.5l-26.5-.1V470.5l47.7 41.1v-38h26.3v104.2l-47.5-46.5m-517.9-7.7c0-28.5 23.1-51.7 51.7-51.7 12.9 0 24.6 4.7 33.7 12.5L345 503.8c-4.5-3.8-10.3-6-16.6-6-14.3 0-25.8 11.6-25.8 25.8 0 14.3 11.6 25.8 25.8 25.8 6.4 0 12.3-2.4 16.8-6.3l17 19.4c-9 7.9-20.9 12.7-33.9 12.7-28.5 0-51.6-23.1-51.6-51.6m209 73.5-49.8-132.4h-41.7v109.8h-27.3V464.7h-60.4l14-26.4h134.7l30.4 79.3 30.4-79.3h130.5l14.4 26.4H535.5l-49.8 132.4m84.2-23.4v-22.2H588c2.9 0 8.5-.2 9.9-4.9 2.9-9.7-26.9-25.5-26.9-49.6 0-18.3 13.2-23.8 22.2-23.8h27.4V495h-16.9s-4.9 0-6.2 2c-7.4 10.5 27.2 25.9 27.2 54.2 0 14.8-12.7 22.6-25.3 22.6h-29.5m-34-100.6h26.4v100.5h-26.4V473.2zm93.1 0h26.4v100.5H629V473.2zM256.7 574.1l-7-18.7H217l-7 18.7h-28l51.4-147.2 51.4 147.2h-28.1M225 528.5h15.6l-7.8-25.7-7.8 25.7m435.2-4.9c0-28.5 23.2-51.7 51.8-51.7 28.5 0 51.7 23.2 51.7 51.7 0 28.6-23.2 51.8-51.7 51.8-28.6-.1-51.8-23.3-51.8-51.8m26.1 0c0 14.2 11.5 25.7 25.7 25.7s25.7-11.5 25.7-25.7-11.5-25.7-25.7-25.7-25.7 11.5-25.7 25.7" style="fill:#fff"/>
</svg>

<svg width="1024" height="1024" viewBox="0 0 1024 1024" fill="none" xmlns="http://www.w3.org/2000/svg">
<g clip-path="url(#clip0_2_1434)">
<path d="M512 1024C794.77 1024 1024 794.77 1024 512C1024 229.23 794.77 0 512 0C229.23 0 0 229.23 0 512C0 794.77 229.23 1024 512 1024Z" fill="#56595B"/>
<path d="M409.2 473.6H435.5V574.1H409.2V473.6ZM794.6 531.3V573.8L768.1 573.7V470.5L815.8 511.6V473.6H842.1V577.8L794.6 531.3ZM276.7 523.6C276.7 495.1 299.8 471.9 328.4 471.9C341.3 471.9 353 476.6 362.1 484.4L345 503.8C340.5 500 334.7 497.8 328.4 497.8C314.1 497.8 302.6 509.4 302.6 523.6C302.6 537.9 314.2 549.4 328.4 549.4C334.8 549.4 340.7 547 345.2 543.1L362.2 562.5C353.2 570.4 341.3 575.2 328.3 575.2C299.8 575.2 276.7 552.1 276.7 523.6ZM485.7 597.1L435.9 464.7H394.2V574.5H366.9V464.7H306.5L320.5 438.3H455.2L485.6 517.6L516 438.3H646.5L660.9 464.7H535.5L485.7 597.1ZM569.9 573.7V551.5H588C590.9 551.5 596.5 551.3 597.9 546.6C600.8 536.9 571 521.1 571 497C571 478.7 584.2 473.2 593.2 473.2H620.6V495H603.7C603.7 495 598.8 495 597.5 497C590.1 507.5 624.7 522.9 624.7 551.2C624.7 566 612 573.8 599.4 573.8H569.9M535.9 473.2H562.3V573.7H535.9V473.2ZM629 473.2H655.4V573.7H629V473.2ZM256.7 574.1L249.7 555.4H217L210 574.1H182L233.4 426.9L284.8 574.1H256.7ZM225 528.5H240.6L232.8 502.8L225 528.5ZM660.2 523.6C660.2 495.1 683.4 471.9 712 471.9C740.5 471.9 763.7 495.1 763.7 523.6C763.7 552.2 740.5 575.4 712 575.4C683.4 575.3 660.2 552.1 660.2 523.6ZM686.3 523.6C686.3 537.8 697.8 549.3 712 549.3C726.2 549.3 737.7 537.8 737.7 523.6C737.7 509.4 726.2 497.9 712 497.9C697.8 497.9 686.3 509.4 686.3 523.6Z" fill="white"/>
</g>
<defs>
<clipPath id="clip0_2_1434">
<rect width="1024" height="1024" fill="white"/>
</clipPath>
</defs>
</svg>
